svg/outline/contacts.svg

<svg width="24" height="24" viewBox="0 0 24 24" fill="none" xmlns="http://www.w3.org/2000/svg">
<path d="M9 9.5V7.5C9 5.84315 10.3431 4.5 12 4.5C13.6569 4.5 15 5.84315 15 7.5V9.5C15 10.6104 14.3967 11.5799 13.5 12.0987V13.323C13.5 13.7319 13.749 14.0996 14.1286 14.2514L16.1788 15.0715C17.5807 15.6323 18.5 16.9901 18.5 18.5H5.5C5.5 16.9901 6.41927 15.6323 7.82119 15.0715L9.87139 14.2514C10.251 14.0996 10.5 13.7319 10.5 13.323V12.0987C9.6033 11.5799 9 10.6104 9 9.5Z" stroke="black" stroke-linecap="round" stroke-linejoin="round"/>
</svg>

<svg xmlns="http://www.w3.org/2000/svg" fill="none" viewBox="0 0 24 24" stroke="currentColor">
  <path stroke-linecap="round" stroke-linejoin="round" d="M9 9.5v-2a3 3 0 116 0v2c0 1.11-.603 2.08-1.5 2.599v1.224a1 1 0 00.629.928l2.05.82A3.693 3.693 0 0118.5 18.5h-13c0-1.51.92-2.868 2.321-3.428l2.05-.82a1 1 0 00.629-.929v-1.224A2.999 2.999 0 019 9.5z"/>
</svg>
